assets/images/afrikons/notification.svg

<svg viewBox="0 0 50 50" xmlns="http://www.w3.org/2000/svg"><path d="m0 0h50v50h-50z" fill="none"/><g fill="#0a0a0a"><path d="m49.37 41.14c-1.24-.22-3.76-.9-4-1a13.51 13.51 0 0 1 -7.37-4.41 22.71 22.71 0 0 1 -2.52-4.06c-1.37-2.72-2.45-5.6-4.2-8.08s-4.36-4.59-7.39-4.78a23.51 23.51 0 0 0 -4.26.38 11 11 0 0 1 -5.63-.68 10.37 10.37 0 0 1 -4.48-4.27 17.92 17.92 0 0 1 -1.31-2.72c-.21-.52-.4-1.08-.57-1.63-.06-.21-.13-.73-.23-1.15a7 7 0 0 1 -5.36 2.52 7.57 7.57 0 0 1 -1.86-.26c.08.18.16.34.17.38.27.66.54 1.32.84 2a40.62 40.62 0 0 0 2 3.87 17.24 17.24 0 0 0 5.86 6.15h.07a17.6 17.6 0 0 0 8.37 2.08c2.9.08 5.8-.26 8.7-.46a2.71 2.71 0 0 1 1.67.26 2.69 2.69 0 0 1 .81 1.06c2.24 4.29 4 9.06 8.06 12 3.61 2.57 8 3.64 12.37 4.33a.77.77 0 0 0 .89-.67.76.76 0 0 0 -.63-.86z"/><path d="m7.19 8.18s-3.52-3-7.19 2.28a6.53 6.53 0 0 0 7.19-2.28z"/></g></svg>

<svg xmlns="http://www.w3.org/2000/svg" viewBox="0 0 50 50"><defs><style>.cls-1{fill:none;}.cls-2{fill:#0a0a0a;}</style></defs><title>notification</title><g id="Layer_2" data-name="Layer 2"><g id="Layer_1-2" data-name="Layer 1"><rect class="cls-1" width="50" height="50"/><path class="cls-2" d="M49.37,41.14c-1.24-.22-3.76-.9-4-1A13.51,13.51,0,0,1,38,35.73a22.71,22.71,0,0,1-2.52-4.06c-1.37-2.72-2.45-5.6-4.2-8.08S26.92,19,23.89,18.81a23.51,23.51,0,0,0-4.26.38A11,11,0,0,1,14,18.51a10.37,10.37,0,0,1-4.48-4.27,17.92,17.92,0,0,1-1.31-2.72C8,11,7.81,10.44,7.64,9.89c-.06-.21-.13-.73-.23-1.15a7,7,0,0,1-5.36,2.52A7.57,7.57,0,0,1,.19,11c.08.18.16.34.17.38.27.66.54,1.32.84,2a40.62,40.62,0,0,0,2,3.87A17.24,17.24,0,0,0,9.06,23.4l.07,0a17.6,17.6,0,0,0,8.37,2.08c2.9.08,5.8-.26,8.7-.46a2.71,2.71,0,0,1,1.67.26,2.69,2.69,0,0,1,.81,1.06c2.24,4.29,4,9.06,8.06,12,3.61,2.57,8,3.64,12.37,4.33A.77.77,0,0,0,50,42v0A.76.76,0,0,0,49.37,41.14Z"/><path class="cls-2" d="M7.19,8.18l0,0S3.67,5.18,0,10.46A6.53,6.53,0,0,0,7.19,8.18Z"/></g></g></svg>
